X: 35339
T: Rosewood
R: jig
M: 6/8
K: Amajor
|:g|agf efg|aed cBA|aga cde|fdB B2 g|
agf efg|aed cBA|def Bcd|cAG A2:|
|:e/d/|cde Ace|fdc dfe|^def Bdf|gee ebg|
agf edc|fed cBA|def Bcd|cAG A2:|

